svg/fluentui-system-icons/ic_fluent_cloud_48_regular.svg

<svg width="48" height="48" viewBox="0 0 48 48" fill="none" xmlns="http://www.w3.org/2000/svg">
<path d="M13.0448 20C13.5501 14.3935 18.262 10 24 10C29.738 10 34.4499 14.3935 34.9552 20H35.25C39.5302 20 43 23.4698 43 27.75C43 32.0302 39.5302 35.5 35.25 35.5H12.75C8.46979 35.5 5 32.0302 5 27.75C5 23.4698 8.46979 20 12.75 20H13.0448ZM24 12.5C19.3056 12.5 15.5 16.3056 15.5 21V21.25C15.5 21.9404 14.9404 22.5 14.25 22.5H12.75C9.85051 22.5 7.5 24.8505 7.5 27.75C7.5 30.6495 9.8505 33 12.75 33H35.25C38.1495 33 40.5 30.6495 40.5 27.75C40.5 24.8505 38.1495 22.5 35.25 22.5H33.75C33.0596 22.5 32.5 21.9404 32.5 21.25V21C32.5 16.3056 28.6944 12.5 24 12.5Z" fill="#212121"/>
</svg>

<svg xmlns="http://www.w3.org/2000/svg" width="48" height="48"><path d="M13.045 20C13.55 14.393 18.262 10 24 10s10.45 4.393 10.955 10h.295a7.75 7.75 0 0 1 0 15.5h-22.5a7.75 7.75 0 0 1 0-15.5h.295ZM24 12.5a8.5 8.5 0 0 0-8.5 8.5v.25c0 .69-.56 1.25-1.25 1.25h-1.5a5.25 5.25 0 1 0 0 10.5h22.5a5.25 5.25 0 1 0 0-10.5h-1.5c-.69 0-1.25-.56-1.25-1.25V21a8.5 8.5 0 0 0-8.5-8.5Z"/></svg>
